public/assets/img/Vector10.svg

<svg width="500" height="500" viewBox="0 0 141 81" fill="none" xmlns="http://www.w3.org/2000/svg">
<rect x="-3.05176e-05" y="9.15527e-05" width="141" height="81" rx="4" fill="#EAECEC"/>
<rect x="6.14011" y="30.1661" width="128.72" height="19.5333" rx="1.5" fill="#FBFEFD" stroke="#E62129"/>
<path d="M11.7998 39.5967C11.7998 38.6794 11.9411 37.9674 12.2238 37.4607C12.5064 36.954 13.0131 36.7007 13.7438 36.7007C14.4744 36.7007 14.9811 36.954 15.2638 37.4607C15.5464 37.9674 15.6878 38.6794 15.6878 39.5967C15.6878 40.53 15.5464 41.2527 15.2638 41.7647C14.9811 42.2767 14.4744 42.5327 13.7438 42.5327C13.0078 42.5327 12.4984 42.2767 12.2158 41.7647C11.9384 41.2527 11.7998 40.53 11.7998 39.5967ZM15.1358 39.5967C15.1358 39.1007 15.1011 38.682 15.0318 38.3407C14.9624 37.9994 14.8264 37.7247 14.6238 37.5167C14.4211 37.3087 14.1278 37.2047 13.7438 37.2047C13.3598 37.2047 13.0664 37.3087 12.8638 37.5167C12.6611 37.7247 12.5251 37.9994 12.4558 38.3407C12.3864 38.682 12.3518 39.1007 12.3518 39.5967C12.3518 40.1087 12.3864 40.538 12.4558 40.8847C12.5251 41.226 12.6611 41.5007 12.8638 41.7087C13.0664 41.9167 13.3598 42.0207 13.7438 42.0207C14.1278 42.0207 14.4211 41.9167 14.6238 41.7087C14.8264 41.5007 14.9624 41.226 15.0318 40.8847C15.1011 40.538 15.1358 40.1087 15.1358 39.5967ZM17.8814 39.5407C17.5508 39.434 17.2974 39.266 17.1214 39.0367C16.9508 38.8074 16.8654 38.53 16.8654 38.2047C16.8654 37.9167 16.9374 37.6607 17.0814 37.4367C17.2308 37.2074 17.4468 37.0287 17.7294 36.9007C18.0121 36.7674 18.3508 36.7007 18.7454 36.7007C19.1401 36.7007 19.4788 36.7674 19.7614 36.9007C20.0441 37.0287 20.2574 37.2074 20.4014 37.4367C20.5508 37.6607 20.6254 37.9167 20.6254 38.2047C20.6254 38.5247 20.5374 38.802 20.3614 39.0367C20.1908 39.2714 19.9401 39.4394 19.6094 39.5407C19.9721 39.6314 20.2574 39.8047 20.4654 40.0607C20.6734 40.3167 20.7774 40.6287 20.7774 40.9967C20.7774 41.338 20.6921 41.6367 20.5214 41.8927C20.3561 42.1434 20.1188 42.338 19.8094 42.4767C19.5054 42.6154 19.1508 42.6847 18.7454 42.6847C18.3401 42.6847 17.9828 42.6154 17.6734 42.4767C17.3694 42.338 17.1321 42.1434 16.9614 41.8927C16.7961 41.6367 16.7134 41.338 16.7134 40.9967C16.7134 40.6287 16.8174 40.3167 17.0254 40.0607C17.2334 39.8047 17.5188 39.6314 17.8814 39.5407ZM20.0814 38.2687C20.0814 37.9167 19.9614 37.6447 19.7214 37.4527C19.4814 37.2607 19.1561 37.1647 18.7454 37.1647C18.3348 37.1647 18.0094 37.2607 17.7694 37.4527C17.5294 37.6394 17.4094 37.9114 17.4094 38.2687C17.4094 38.5994 17.5321 38.8634 17.7774 39.0607C18.0228 39.258 18.3454 39.3567 18.7454 39.3567C19.1454 39.3567 19.4681 39.258 19.7134 39.0607C19.9588 38.8634 20.0814 38.5994 20.0814 38.2687ZM18.7454 39.7887C18.3081 39.7887 17.9508 39.8874 17.6734 40.0847C17.3961 40.282 17.2574 40.5807 17.2574 40.9807C17.2574 41.3647 17.3908 41.666 17.6574 41.8847C17.9241 42.1034 18.2868 42.2127 18.7454 42.2127C19.1988 42.2127 19.5588 42.1034 19.8254 41.8847C20.0921 41.6607 20.2254 41.3594 20.2254 40.9807C20.2254 40.586 20.0868 40.29 19.8094 40.0927C19.5374 39.89 19.1828 39.7887 18.7454 39.7887ZM22.5456 40.9887C22.6043 41.3354 22.7376 41.602 22.9456 41.7887C23.1536 41.9754 23.439 42.0687 23.8016 42.0687C24.303 42.0687 24.6736 41.874 24.9136 41.4847C25.159 41.09 25.271 40.4394 25.2496 39.5327C25.1483 39.826 24.9536 40.058 24.6656 40.2287C24.383 40.394 24.0576 40.4767 23.6896 40.4767C23.1296 40.4767 22.679 40.3087 22.3376 39.9727C22.0016 39.6367 21.8336 39.17 21.8336 38.5727C21.8336 38.2154 21.903 37.8927 22.0416 37.6047C22.1803 37.3167 22.391 37.09 22.6736 36.9247C22.9563 36.7594 23.303 36.6767 23.7136 36.6767C24.471 36.6767 24.999 36.9247 25.2976 37.4207C25.5963 37.9114 25.7456 38.618 25.7456 39.5407C25.7456 40.538 25.5963 41.2874 25.2976 41.7887C25.0043 42.29 24.4976 42.5407 23.7776 42.5407C23.2496 42.5407 22.839 42.3994 22.5456 42.1167C22.2523 41.8287 22.079 41.4527 22.0256 40.9887H22.5456ZM23.7776 39.9967C24.0283 39.9967 24.2576 39.946 24.4656 39.8447C24.679 39.738 24.8496 39.5834 24.9776 39.3807C25.1056 39.178 25.1696 38.9354 25.1696 38.6527C25.1696 38.2154 25.0443 37.8554 24.7936 37.5727C24.5483 37.29 24.1936 37.1487 23.7296 37.1487C23.319 37.1487 22.9883 37.2767 22.7376 37.5327C22.4923 37.7887 22.3696 38.13 22.3696 38.5567C22.3696 39.0047 22.4923 39.3567 22.7376 39.6127C22.983 39.8687 23.3296 39.9967 23.7776 39.9967Z" fill="#252836" fill-opacity="0.5"/>
<path d="M30.0199 43.4207H29.1079V36.1087H30.0199V43.4207Z" fill="#252836"/>
<rect x="5.64011" y="5.00009" width="129.72" height="20.5333" rx="2" fill="#FAFAFA"/>
<path d="M14.912 16.7601H12.48L12.032 18.0001H11.264L13.28 12.4561H14.12L16.128 18.0001H15.36L14.912 16.7601ZM14.704 16.1681L13.696 13.3521L12.688 16.1681H14.704ZM17.7746 14.4321C17.9239 14.1708 18.1426 13.9574 18.4306 13.7921C18.7186 13.6268 19.0466 13.5441 19.4146 13.5441C19.8093 13.5441 20.1639 13.6374 20.4786 13.8241C20.7933 14.0108 21.0413 14.2748 21.2226 14.6161C21.4039 14.9521 21.4946 15.3441 21.4946 15.7921C21.4946 16.2348 21.4039 16.6294 21.2226 16.9761C21.0413 17.3228 20.7906 17.5921 20.4706 17.7841C20.1559 17.9761 19.8039 18.0721 19.4146 18.0721C19.0359 18.0721 18.7026 17.9894 18.4146 17.8241C18.1319 17.6588 17.9186 17.4481 17.7746 17.1921V18.0001H17.0466V12.0801H17.7746V14.4321ZM20.7506 15.7921C20.7506 15.4614 20.6839 15.1734 20.5506 14.9281C20.4173 14.6828 20.2359 14.4961 20.0066 14.3681C19.7826 14.2401 19.5346 14.1761 19.2626 14.1761C18.9959 14.1761 18.7479 14.2428 18.5186 14.3761C18.2946 14.5041 18.1133 14.6934 17.9746 14.9441C17.8413 15.1894 17.7746 15.4748 17.7746 15.8001C17.7746 16.1308 17.8413 16.4214 17.9746 16.6721C18.1133 16.9174 18.2946 17.1068 18.5186 17.2401C18.7479 17.3681 18.9959 17.4321 19.2626 17.4321C19.5346 17.4321 19.7826 17.3681 20.0066 17.2401C20.2359 17.1068 20.4173 16.9174 20.5506 16.6721C20.6839 16.4214 20.7506 16.1281 20.7506 15.7921ZM23.2208 14.3281C23.3488 14.0774 23.5302 13.8828 23.7648 13.7441C24.0048 13.6054 24.2955 13.5361 24.6368 13.5361V14.2881H24.4448C23.6288 14.2881 23.2208 14.7308 23.2208 15.6161V18.0001H22.4928V13.6161H23.2208V14.3281ZM25.2452 15.7921C25.2452 15.3441 25.3359 14.9521 25.5172 14.6161C25.6986 14.2748 25.9466 14.0108 26.2612 13.8241C26.5812 13.6374 26.9359 13.5441 27.3252 13.5441C27.7092 13.5441 28.0426 13.6268 28.3252 13.7921C28.6079 13.9574 28.8186 14.1654 28.9572 14.4161V13.6161H29.6932V18.0001H28.9572V17.1841C28.8132 17.4401 28.5972 17.6534 28.3092 17.8241C28.0266 17.9894 27.6959 18.0721 27.3172 18.0721C26.9279 18.0721 26.5759 17.9761 26.2612 17.7841C25.9466 17.5921 25.6986 17.3228 25.5172 16.9761C25.3359 16.6294 25.2452 16.2348 25.2452 15.7921ZM28.9572 15.8001C28.9572 15.4694 28.8906 15.1814 28.7572 14.9361C28.6239 14.6908 28.4426 14.5041 28.2132 14.3761C27.9892 14.2428 27.7412 14.1761 27.4692 14.1761C27.1972 14.1761 26.9492 14.2401 26.7252 14.3681C26.5012 14.4961 26.3226 14.6828 26.1892 14.9281C26.0559 15.1734 25.9892 15.4614 25.9892 15.7921C25.9892 16.1281 26.0559 16.4214 26.1892 16.6721C26.3226 16.9174 26.5012 17.1068 26.7252 17.2401C26.9492 17.3681 27.1972 17.4321 27.4692 17.4321C27.7412 17.4321 27.9892 17.3681 28.2132 17.2401C28.4426 17.1068 28.6239 16.9174 28.7572 16.6721C28.8906 16.4214 28.9572 16.1308 28.9572 15.8001ZM33.1395 13.5361C33.4701 13.5361 33.7688 13.6081 34.0355 13.7521C34.3021 13.8908 34.5101 14.1014 34.6595 14.3841C34.8141 14.6668 34.8915 15.0108 34.8915 15.4161V18.0001H34.1715V15.5201C34.1715 15.0828 34.0621 14.7494 33.8435 14.5201C33.6248 14.2854 33.3261 14.1681 32.9475 14.1681C32.5635 14.1681 32.2568 14.2881 32.0275 14.5281C31.8035 14.7681 31.6915 15.1174 31.6915 15.5761V18.0001H30.9635V12.0801H31.6915V14.2401C31.8355 14.0161 32.0328 13.8428 32.2835 13.7201C32.5395 13.5974 32.8248 13.5361 33.1395 13.5361ZM35.8487 15.7921C35.8487 15.3441 35.9393 14.9521 36.1207 14.6161C36.302 14.2748 36.55 14.0108 36.8647 13.8241C37.1847 13.6374 37.5393 13.5441 37.9287 13.5441C38.3127 13.5441 38.646 13.6268 38.9287 13.7921C39.2113 13.9574 39.422 14.1654 39.5607 14.4161V13.6161H40.2967V18.0001H39.5607V17.1841C39.4167 17.4401 39.2007 17.6534 38.9127 17.8241C38.63 17.9894 38.2993 18.0721 37.9207 18.0721C37.5313 18.0721 37.1793 17.9761 36.8647 17.7841C36.55 17.5921 36.302 17.3228 36.1207 16.9761C35.9393 16.6294 35.8487 16.2348 35.8487 15.7921ZM39.5607 15.8001C39.5607 15.4694 39.494 15.1814 39.3607 14.9361C39.2273 14.6908 39.046 14.5041 38.8167 14.3761C38.5927 14.2428 38.3447 14.1761 38.0727 14.1761C37.8007 14.1761 37.5527 14.2401 37.3287 14.3681C37.1047 14.4961 36.926 14.6828 36.7927 14.9281C36.6593 15.1734 36.5927 15.4614 36.5927 15.7921C36.5927 16.1281 36.6593 16.4214 36.7927 16.6721C36.926 16.9174 37.1047 17.1068 37.3287 17.2401C37.5527 17.3681 37.8007 17.4321 38.0727 17.4321C38.3447 17.4321 38.5927 17.3681 38.8167 17.2401C39.046 17.1068 39.2273 16.9174 39.3607 16.6721C39.494 16.4214 39.5607 16.1308 39.5607 15.8001ZM46.8389 13.5361C47.1802 13.5361 47.4842 13.6081 47.7509 13.7521C48.0176 13.8908 48.2282 14.1014 48.3829 14.3841C48.5376 14.6668 48.6149 15.0108 48.6149 15.4161V18.0001H47.8949V15.5201C47.8949 15.0828 47.7856 14.7494 47.5669 14.5201C47.3536 14.2854 47.0629 14.1681 46.6949 14.1681C46.3162 14.1681 46.0149 14.2908 45.7909 14.5361C45.5669 14.7761 45.4549 15.1254 45.4549 15.5841V18.0001H44.7349V15.5201C44.7349 15.0828 44.6256 14.7494 44.4069 14.5201C44.1936 14.2854 43.9029 14.1681 43.5349 14.1681C43.1562 14.1681 42.8549 14.2908 42.6309 14.5361C42.4069 14.7761 42.2949 15.1254 42.2949 15.5841V18.0001H41.5669V13.6161H42.2949V14.2481C42.4389 14.0188 42.6309 13.8428 42.8709 13.7201C43.1162 13.5974 43.3856 13.5361 43.6789 13.5361C44.0469 13.5361 44.3722 13.6188 44.6549 13.7841C44.9376 13.9494 45.1482 14.1921 45.2869 14.5121C45.4096 14.2028 45.6122 13.9628 45.8949 13.7921C46.1776 13.6214 46.4922 13.5361 46.8389 13.5361Z" fill="#252836" fill-opacity="0.8"/>
<mask id="mask0_407_2253" style="mask-type:alpha" maskUnits="userSpaceOnUse" x="121" y="10" width="10" height="10">
<rect x="121" y="10.0001" width="10" height="10" fill="#C4C4C4"/>
</mask>
<g mask="url(#mask0_407_2253)">
<circle cx="126" cy="15.0001" r="5" fill="#E62129"/>
<path d="M124.5 15.1868L125.687 16.3733L128.06 14.0003" stroke="#FAFAFA" stroke-linecap="round" stroke-linejoin="round"/>
</g>
<rect x="5.64011" y="54.1993" width="129.72" height="20.5333" rx="2" fill="#F7F8F7"/>
</svg>

<svg width="500" height="500" viewBox="0 0 141 81" fill="none" xmlns="http://www.w3.org/2000/svg"><rect width="141" height="81" rx="4" fill="#EAECEC"/><rect x="6.14" y="30.166" width="128.72" height="19.533" rx="1.5" fill="#FBFEFD" stroke="#E62129"/><path d="M11.8 39.597c0-.918.141-1.63.424-2.136.282-.507.79-.76 1.52-.76s1.237.253 1.52.76c.282.506.424 1.218.424 2.136 0 .933-.142 1.656-.424 2.168-.283.512-.79.768-1.52.768-.736 0-1.246-.256-1.528-.768-.278-.512-.416-1.235-.416-2.168Zm3.336 0c0-.496-.035-.915-.104-1.256-.07-.342-.206-.616-.408-.824-.203-.208-.496-.312-.88-.312s-.678.104-.88.312c-.203.208-.339.482-.408.824-.07.341-.104.76-.104 1.256 0 .512.034.941.104 1.288.07.341.205.616.408.824.202.208.496.312.88.312s.677-.104.88-.312c.202-.208.338-.483.408-.824.07-.347.104-.776.104-1.288Zm2.745-.056c-.33-.107-.584-.275-.76-.504a1.355 1.355 0 0 1-.256-.832c0-.288.072-.544.216-.768.15-.23.366-.408.648-.536.283-.134.622-.2 1.016-.2.395 0 .734.066 1.016.2.283.128.496.306.64.536.15.224.224.48.224.768 0 .32-.088.597-.264.832-.17.234-.42.402-.752.504.363.09.648.264.856.52.208.256.312.568.312.936 0 .341-.085.64-.256.896a1.62 1.62 0 0 1-.712.584 2.541 2.541 0 0 1-1.064.208c-.405 0-.762-.07-1.072-.208a1.683 1.683 0 0 1-.712-.584 1.615 1.615 0 0 1-.248-.896c0-.368.104-.68.312-.936.208-.256.494-.43.856-.52Zm2.2-1.272c0-.352-.12-.624-.36-.816-.24-.192-.565-.288-.976-.288-.41 0-.736.096-.976.288-.24.186-.36.458-.36.816 0 .33.123.594.368.792.246.197.568.296.968.296s.723-.099.968-.296a.964.964 0 0 0 .368-.792Zm-1.336 1.52c-.437 0-.794.098-1.072.296-.277.197-.416.496-.416.896 0 .384.134.685.4.904.267.218.63.328 1.088.328.454 0 .814-.11 1.08-.328.267-.224.4-.526.4-.904 0-.395-.138-.691-.416-.888-.272-.203-.626-.304-1.064-.304Zm3.8 1.2c.06.346.193.613.4.8.209.186.494.28.857.28.501 0 .872-.195 1.112-.584.245-.395.357-1.046.336-1.952a1.281 1.281 0 0 1-.584.696 1.897 1.897 0 0 1-.976.248c-.56 0-1.011-.168-1.352-.504-.336-.336-.504-.803-.504-1.4 0-.358.069-.68.208-.968.138-.288.349-.515.632-.68.282-.166.629-.248 1.04-.248.757 0 1.285.248 1.584.744.298.49.448 1.197.448 2.12 0 .997-.15 1.746-.448 2.248-.294.501-.8.752-1.52.752-.528 0-.939-.142-1.232-.424-.294-.288-.467-.664-.52-1.128h.52Zm1.233-.992c.25 0 .48-.051.688-.152.213-.107.384-.262.512-.464.128-.203.192-.446.192-.728 0-.438-.126-.798-.376-1.08-.246-.283-.6-.424-1.064-.424-.411 0-.742.128-.992.384-.246.256-.368.597-.368 1.024 0 .448.122.8.368 1.056.245.256.592.384 1.04.384Z" fill="#252836" fill-opacity=".5"/><path d="M30.02 43.42h-.912V36.11h.912v7.312Z" fill="#252836"/><rect x="5.64" y="5" width="129.72" height="20.533" rx="2" fill="#FAFAFA"/><path d="M14.912 16.76H12.48L12.032 18h-.768l2.016-5.544h.84L16.128 18h-.768l-.448-1.24Zm-.208-.592-1.008-2.816-1.008 2.816h2.016Zm3.07-1.736a1.72 1.72 0 0 1 .657-.64c.288-.165.616-.248.984-.248a1.976 1.976 0 0 1 1.808 1.072c.18.336.272.728.272 1.176 0 .443-.091.837-.272 1.184a2.001 2.001 0 0 1-1.808 1.096c-.38 0-.712-.083-1-.248a1.694 1.694 0 0 1-.64-.632V18h-.728v-5.92h.728v2.352Zm2.977 1.36c0-.33-.067-.619-.2-.864a1.377 1.377 0 0 0-.544-.56 1.473 1.473 0 0 0-.744-.192 1.455 1.455 0 0 0-1.288.768c-.134.245-.2.53-.2.856 0 .33.066.621.2.872.138.245.32.435.544.568.229.128.477.192.744.192.272 0 .52-.064.744-.192.229-.133.41-.323.544-.568.133-.25.2-.544.2-.88Zm2.47-1.464c.128-.25.31-.445.544-.584.24-.139.53-.208.872-.208v.752h-.192c-.816 0-1.224.443-1.224 1.328V18h-.728v-4.384h.728v.712Zm2.024 1.464c0-.448.09-.84.272-1.176.182-.341.43-.605.744-.792.32-.187.675-.28 1.064-.28.384 0 .718.083 1 .248.283.165.494.373.632.624v-.8h.736V18h-.736v-.816c-.144.256-.36.47-.648.64a1.93 1.93 0 0 1-.992.248c-.39 0-.741-.096-1.056-.288a2.02 2.02 0 0 1-.744-.808 2.517 2.517 0 0 1-.272-1.184Zm3.712.008c0-.33-.066-.619-.2-.864a1.376 1.376 0 0 0-.544-.56 1.428 1.428 0 0 0-.744-.2c-.272 0-.52.064-.744.192a1.394 1.394 0 0 0-.536.56c-.133.245-.2.533-.2.864 0 .336.067.63.2.88.134.245.312.435.536.568.224.128.472.192.744.192s.52-.064.744-.192c.23-.133.41-.323.544-.568.134-.25.2-.541.2-.872Zm4.182-2.264c.331 0 .63.072.896.216.267.139.475.35.625.632.154.283.232.627.232 1.032V18h-.72v-2.48c0-.437-.11-.77-.328-1-.22-.235-.518-.352-.897-.352-.384 0-.69.12-.92.36-.224.24-.335.59-.335 1.048V18h-.729v-5.92h.729v2.16a1.44 1.44 0 0 1 .591-.52c.256-.123.542-.184.856-.184Zm2.71 2.256c0-.448.09-.84.272-1.176.181-.341.429-.605.744-.792.32-.187.674-.28 1.064-.28.384 0 .717.083 1 .248.282.165.493.373.632.624v-.8h.736V18h-.736v-.816c-.144.256-.36.47-.648.64a1.93 1.93 0 0 1-.992.248c-.39 0-.742-.096-1.056-.288a2.02 2.02 0 0 1-.744-.808 2.516 2.516 0 0 1-.272-1.184Zm3.712.008c0-.33-.067-.619-.2-.864a1.378 1.378 0 0 0-.544-.56 1.428 1.428 0 0 0-.744-.2c-.272 0-.52.064-.744.192a1.393 1.393 0 0 0-.536.56c-.134.245-.2.533-.2.864 0 .336.066.63.2.88.133.245.312.435.536.568.224.128.472.192.744.192s.52-.064.744-.192c.229-.133.41-.323.544-.568.133-.25.2-.541.2-.872Zm7.278-2.264c.341 0 .645.072.912.216.267.139.477.35.632.632.155.283.232.627.232 1.032V18h-.72v-2.48c0-.437-.11-.77-.328-1-.213-.235-.504-.352-.872-.352-.379 0-.68.123-.904.368-.224.24-.336.59-.336 1.048V18h-.72v-2.48c0-.437-.11-.77-.328-1-.213-.235-.504-.352-.872-.352-.379 0-.68.123-.904.368-.224.24-.336.59-.336 1.048V18h-.728v-4.384h.728v.632c.144-.23.336-.405.576-.528a1.78 1.78 0 0 1 .808-.184c.368 0 .693.083.976.248.283.165.493.408.632.728.123-.31.325-.55.608-.72a1.79 1.79 0 0 1 .944-.256Z" fill="#252836" fill-opacity=".8"/><mask id="a" style="mask-type:alpha" maskUnits="userSpaceOnUse" x="121" y="10" width="10" height="10"><path fill="#C4C4C4" d="M121 10h10v10h-10z"/></mask><g mask="url(#a)"><circle cx="126" cy="15" r="5" fill="#E62129"/><path d="m124.5 15.187 1.187 1.186L128.06 14" stroke="#FAFAFA" stroke-linecap="round" stroke-linejoin="round"/></g><rect x="5.64" y="54.199" width="129.72" height="20.533" rx="2" fill="#F7F8F7"/></svg>
